X:1
T:Savoie, 88.88.88.88.88
T:Savoie, 88.88.88.88.88
T:Harrison Millard, 1873
T:Public Domain Courtesy of the Cyber Hymnal™
C:Harrison Millard, 1873
Z:Public Domain
Z:Courtesy of the Cyber Hymnal™
%%score ( 1 2 ) ( 3 4 )
L:1/8
Q:1/4=65
M:4/4
K:Eb
V:1 treble 
V:2 treble 
V:3 bass 
V:4 bass 
V:1
 (3[GB][^F=A][GB] [G=f]>[Ge] [EG]>!>(![Fc]!>)! [GB]2 | (3[DF][D=E][DF] [_EG]>[FA] [Ac]>[GB] [GB]2 | %2
 (3[GB][^F=A][GB] [G=f]>[Ge] [EG]>!>(![Fc]!>)! [GB]2 | (3[DF][DB][Ec] [Fd]>[Fe] [Ed]>[Ec] [DB]2 | %4
 (3[FA][=EG][FA] [Ac]>[Ac] (3([Ac][GB])[FA] [_EG]2 | %5
 (3[GB][=FA][GB] [ce]>[Bd] (3([Ac][GB])[FA] [_EG]2 | %6
 (3[GB][Gc][G_d] (3[Ac] z [Ac] (3(c=d)[_Ae] [Fd]2 x3/8 | %7
 (3[Ee][EB][EG] [Ed]>[Ec] (3(BF)[DA] [EG]2 | (3[Ee][EB][EG] [Ed]>[Ec] (3(BF)[DG] E2 | %9
 B2 [FB]>[GB]"^rall." [EG]4 | B2 [FB]>[GB] !fermata![EB]4 |] %11
V:2
 x8 | x8 | x8 | x8 | x8 | x8 | x4 =A2 x19/8 | x4 D2 x2 | x4 D2 E2 | (DE) x6 | (DE) x6 |] %11
V:3
 (3[E,B,][E,B,][E,B,] [E,B,]>[E,B,] [E,B,]>[E,=A,] [E,B,]2 | %1
 (3[B,,B,][B,,B,][B,,B,] [B,,B,]>[B,,B,] [E,B,]>[E,B,] [E,B,]2 | %2
 (3[E,B,][E,B,][E,B,] [E,B,]>[E,B,] [E,B,]>!>(![E,=A,]!>)! [E,B,]2 | %3
 (3[F,B,][F,B,][F,B,] [F,B,]>[F,B,] [F,=A,]>[F,A,] [B,,B,]2 | %4
 (3[B,,B,][B,,B,][B,,B,] [B,,B,]>[B,,B,] (3:2:2[E,B,]2 [E,B,] [E,B,]2 | %5
 (3[B,,B,][B,,B,][B,,B,] [B,,B,]>[B,,B,] (3:2:2[E,B,]2 [E,B,] [E,B,]2 | %6
 (3[E,_D][E,D][E,B,] A, (3:2:2z [A,E] (3:2:2[F,E]2 [F,C] [_A,B,]2 x/24 | %7
 (3[G,B,][G,B,][G,B,] [A,C]>[A,C] (3:2:2[B,,A,]2 [B,,B,] [E,B,]2 | %8
 (3[G,B,][G,B,][G,B,] [A,C]>[A,C] (3:2:2[B,,A,]2 [B,,B,] [E,G,]2 | (F,G,) [B,,A,]>[B,,B,] [E,B,]4 | %10
 (F,G,) [B,,A,]>[B,,B,] !fermata![E,G,]4 |] %11
V:4
 x8 | x8 | x8 | x8 | x8 | x8 | x49/24 (3:2:1A, x137/24 | x8 | x8 | C,2 x6 | B,,2 x6 |] %11

